X:1
T:Dever the Dancer
S:78 RPM recording by flute player John McKenna
Z:Transcribed by Frank Claudy
M:9/8
L:1/8
K:D
BEE BEF G2 A|BGE BAG FED|BEE BEF G2 A|
1 dcB ABG FED:|2 dcB ABG FGA||ded cAF ~G3|
Adc def gfe|fed cAF G2 A|1 Bdc ABG FGA:|2 Bdc ABG FED||

